icons/Media/live-line.svg

<svg viewBox="0 0 24 24" xmlns="http://www.w3.org/2000/svg"><path d="M16 4C16.5523 4 17 4.44772 17 5V9.2L22.2133 5.55071C22.4395 5.39235 22.7513 5.44737 22.9096 5.6736C22.9684 5.75764 23 5.85774 23 5.96033V18.0397C23 18.3158 22.7761 18.5397 22.5 18.5397C22.3974 18.5397 22.2973 18.5081 22.2133 18.4493L17 14.8V19C17 19.5523 16.5523 20 16 20H2C1.44772 20 1 19.5523 1 19V5C1 4.44772 1.44772 4 2 4H16ZM15 6H3V18H15V6ZM7.4 8.82867C7.47607 8.82867 7.55057 8.85036 7.61475 8.8912L11.9697 11.6625C12.1561 11.7811 12.211 12.0284 12.0924 12.2148C12.061 12.2641 12.0191 12.306 11.9697 12.3375L7.61475 15.1088C7.42837 15.2274 7.18114 15.1725 7.06254 14.9861C7.02169 14.9219 7 14.8474 7 14.7713V9.22867C7 9.00776 7.17909 8.82867 7.4 8.82867ZM21 8.84131L17 11.641V12.359L21 15.1587V8.84131Z"/></svg>

<svg xmlns="http://www.w3.org/2000/svg" viewBox="0 0 24 24">
    <g>
        <path fill="none" d="M0 0h24v24H0z"/>
        <path fill-rule="nonzero" d="M16 4a1 1 0 0 1 1 1v4.2l5.213-3.65a.5.5 0 0 1 .787.41v12.08a.5.5 0 0 1-.787.41L17 14.8V19a1 1 0 0 1-1 1H2a1 1 0 0 1-1-1V5a1 1 0 0 1 1-1h14zm-1 2H3v12h12V6zM7.4 8.829a.4.4 0 0 1 .215.062l4.355 2.772a.4.4 0 0 1 0 .674L7.615 15.11A.4.4 0 0 1 7 14.77V9.23c0-.221.18-.4.4-.4zM21 8.84l-4 2.8v.718l4 2.8V8.84z"/>
    </g>
</svg>
